X:1
T:Dick Darby, the Cobbler
M:3/8
L:1/8
K:G
 G/2A/2| Bdd| AB c/2c/2| B G2-| G zd/2-d/2| ggg| gde| =f3-| =f zd/2-d/2|\
 gdd/2-e/2| =fce| e/2 d3/2- d-| d zd/2-c/2| Bcd| cAF| G3-| G z G/2A/2|\
 Bd d/2d/2| AB c/2c/2| B G2-| G z d/2d/2| gg d/2e/2|
M:2/4
 =ff g/2g/2 f|
M:3/8
 d3-| d z d/2d/2| gdd/2-e/2| =fce| e d2-| d z d/2c/2| Bcd| cAF| G3-|\
 G z||
